!! 00010] TT[TB
!! Eigene Aufnahme
!!!OTL: E tuo ke xijie To the west boarder of the Otug            (Verwaltungseinheit)
!!!ARE: Neimeng
!! Ethnic Group: Menggu
!! MM, S. 652
!!!SCT: C0552
!!!YEM: Copyright 1995, estate of Helmut Schaffrath.
**kern
*ICvox
*Ivox
*M4/4
*k[]
*C:
{4.g
8cc
4e
4d
=1
8cc
4a
8g
4e
4g
=2
4.c
8d
8g
8a
8g
8e
=3
4.d
8e
4d
4G}
=4
{4.g
8a
4c
4A
=5
4e
4g
8e
8d
4e
=6
8c
8d
4e
8d
4c
8A
=7
4.G
8d
2G}
==
!!!AGN: NN
!! Saenger: Chao Lun Batou, der das Buch nur zum Nachschlagen
!!    benutzte und ansonsten auswendig sang. Da er aus dem Osten der
!!    Neimeng kommt, kennt er nicht so viele Lieder des Westens.
!!    Alle Lieder wurden mit erkaelteter, halber Stimme in meinem
!!    Zimmer gesungen. FOTO VORHANDEN (DIAS)  31.3.87
!!    OFFENBAR ANDERES STUECK!
!!!ONB: ESAC (Essen Associative Code) Database: CHINA
!!!AMT: simple quadruple
!!!AIN: vox
!!!EED: Helmut Schaffrath
!!!EEV: 1.0
*-
